icons/lines/buildings.svg

<svg xmlns="http://www.w3.org/2000/svg" width="24" height="24" viewBox="0 0 24 24" fill="none" stroke="currentColor" stroke-width="2" stroke-linecap="round" stroke-linejoin="round" >
  <path d="M13 22H5C3 22 2 21 2 19V11C2 9 3 8 5 8H10V19C10 21 11 22 13 22Z" stroke-miterlimit="10"/>
  <path d="M10.11 4C10.03 4.3 10 4.63 10 5V8H5V6C5 4.9 5.9 4 7 4H10.11Z" stroke-miterlimit="10"/>
  <path d="M14 8V13" stroke-miterlimit="10"/>
  <path d="M18 8V13" stroke-miterlimit="10"/>
  <path d="M17 17H15C14.45 17 14 17.45 14 18V22H18V18C18 17.45 17.55 17 17 17Z" stroke-miterlimit="10"/>
  <path d="M6 13V17" stroke-miterlimit="10"/>
  <path d="M10 19V5C10 3 11 2 13 2H19C21 2 22 3 22 5V19C22 21 21 22 19 22H13C11 22 10 21 10 19Z" stroke-miterlimit="10"/>
  </svg>

<svg xmlns="http://www.w3.org/2000/svg" width="24" height="24" viewBox="0 0 24 24" fill="none" stroke="currentColor" stroke-width="2" stroke-linecap="round" stroke-linejoin="round">
  <path d="M10 8H5q-3 0-3 3v8q0 3 3 3h14q3 0 3-3V5q0-3-3-3h-6q-3 0-3 3v14q0 3 3 3-3 0-3-3" />
  <path d="M14 8v5" />
  <path d="M18 22v-4a1 1 0 0 0-1-1h-2a1 1 0 0 0-1 1v4" />
  <path d="M18 8v5" />
  <path d="M5 8V6a2 2 0 0 1 2-2h3.11A4 4 0 0 0 10 5" />
  <path d="M6 13v4" />
</svg>
